X: 25176
T: Major Moir Of Villeveque
R: jig
M: 6/8
K: Dmajor
|:A|fed dcB|A2A AFA|fed faf|e2e ede|
fed dcB|A2A AFA|faf gec|d3 d2:|
f|ecA A2a|fed d2e|fga Bcd|e3 e2f|
ecA A2a|fed dcB|Aca gec|d3 d2f|
ecA A2a|fed d2e|fga Bcd|e3 e2a|
fed dcB|gfe dcB|Aaf gec|d3 d2z|

